icons/plop.svg

<svg width="16" height="16" viewBox="0 0 16 16" fill="none" xmlns="http://www.w3.org/2000/svg">
<path d="M8.00012 2C9.62644 4.16667 12.3912 7.5 12.8791 9.5C13.4708 11.9254 11.9033 14 8.00012 14V12C9.63774 12 10.3997 11.5634 10.6974 11.2598C10.9081 11.0449 11.056 10.728 10.9816 10.209L10.9357 9.97363C10.7937 9.39211 10.2074 8.34741 9.23257 6.96582C8.81408 6.3727 8.37672 5.78916 7.94445 5.22168C7.554 5.73088 7.15707 6.27276 6.78427 6.81738C5.94515 8.04326 5.37132 9.07562 5.14165 9.72168L5.0645 9.97363C4.90311 10.6352 5.06207 11.0143 5.30279 11.2598C5.60054 11.5634 6.3625 12 8.00012 12V14C4.21903 14 2.63012 12.0532 3.07227 9.72656L3.1211 9.5C3.60899 7.5 6.3738 3.83333 8.00012 2Z" fill="url(#paint0_linear_1852_142)"/>
<defs>
<linearGradient id="paint0_linear_1852_142" x1="8" y1="2" x2="8" y2="14" gradientUnits="userSpaceOnUse">
<stop stop-color="#0ED0CD"/>
<stop offset="1" stop-color="#25BE74"/>
</linearGradient>
</defs>
</svg>

<svg xmlns="http://www.w3.org/2000/svg" width="16" height="16" fill="none" viewBox="0 0 16 16"><path fill="url(#paint0_linear_1852_142)" d="M8 2c1.626 2.167 4.391 5.5 4.88 7.5.59 2.425-.977 4.5-4.88 4.5v-2c1.638 0 2.4-.437 2.697-.74.211-.215.359-.532.285-1.051l-.046-.235c-.142-.582-.729-1.627-1.703-3.008a60 60 0 0 0-1.289-1.744 37 37 0 0 0-1.16 1.595c-.839 1.226-1.413 2.259-1.642 2.905l-.078.252c-.16.661-.002 1.04.239 1.286.298.303 1.06.74 2.697.74v2c-3.781 0-5.37-1.947-4.928-4.273l.05-.227C3.608 7.5 6.373 3.833 8 2"/><defs><linearGradient id="paint0_linear_1852_142" x1="8" x2="8" y1="2" y2="14" gradientUnits="userSpaceOnUse"><stop stop-color="#0ED0CD"/><stop offset="1" stop-color="#25BE74"/></linearGradient></defs></svg>
